X:1
T:Guardate amanti
T:Tiburtio Massaino
T:Guardate amanti
C:Tiburtio Massaino
%%score [ 1 2 3 4 ]
L:1/8
Q:1/4=120
M:4/2
K:C
V:1 treble nm="Soprano" snm="S"
V:2 alto2 nm="Alto" snm="A"
V:3 alto nm="Tenor" snm="T"
V:4 bass3 nm="Bass" snm="B"
V:1
 z16 |[K:Bb] B8 G4 E4 | _A8 G8- | G8 z8 | z8 z4 B4 | B2 c2 d2 B2 c4 B4 | z8 B4 _A2 B2 | %7
w: |Guar- da- te a-|man- ti|_|io|mi ri- vol- go a vo- i,|io mi ri-|
 G2 _A2 B4 A4 z4 | _A4 G2 F2 G2 A2 B4- | B2 _AG A4 B4 z4 | z2 G4 F2 E4 G3 _A | B4 G4 z8 | %12
w: vol- go a vo- i,|io mi ri- vol- go a vo-|* * * * i,|Per- che so ben ch'al-|tru- i,|
 z4 z2 B2 B3 _A G2 F2 | E6 G2 G3 F E4 | D2 d4 e4 d2 c4 | d4 B6 B2 G4 | G3 F E4 z4 G4 | %17
w: In- ten- de- re non|puo qual stat' e'l mi-|o, qual stat' e'l mi-|o A- mo quan-|to si puo ne|
 B2 A2 B2 c2 d4 B4 | _A4 G2 B2 B2 B2 c2 d2 | e4 d4 z8 | z8 z2 d2 d2 d2 | c2 d2 e4 d4 B4 | %22
w: per _ _ _ _ con-|for- to, De l'a- mo- ro- so af-|fan- no,|De l'a- mo-|ro- so af- fan- no, De|
 B2 B2 A2 B2 c4 B4 | z4 B4 B3 A G4 | F4 z4 z4 E4- | E2 D2 E2 E4 F2 G2 E2 | F2 G2 E6 DC D4 | %27
w: l'a- mo- ro- so af- fan- no,|al- tro de- si-|o, Che|_ ve- der glioc- chi de la|Don- na mi- * * *|
 E4 G4 E2 D2 C2 B,2 | C4 E4 D4 G4 | G8 G4 z2 B2 | G6 E2 _A8 | G2 B3 _A A2 B8 | z8 z4 d4 | %33
w: a, Et el- * * *|* la perch' io|si- a, Et|el- la perch'|io si- * * a,|Tra|
 c6 B2 c4 d4 | e4 d4 c4 B4 | e4 d4 z8 | G6 E2 B4 A2 B2 | G6 FE D4 G4- | G2 FE F4 G4 z2 G2- | %39
w: gli in- fe- li- ci a-|mant' il piu in- fe-|li- ce,|Quest' an- cor mi dis-|di- * * * *|* * * * ce, Et|
 G2 c4 A4 d4 c2 | B2 A2 G2 F2 B8 | A8 z4 F4 | F6 D2 G4 A4 | B4 d4 c4 f4 | e4 c4 d6 cB | %45
w: _ sol mi mo- stra|tan- to del bel vi-|so, Ch'io|veg- gia che'l mio|duol, Ch'io veg- gia|che'l mio duol _ _|
[M:3/2][Q:1/4=180] A4 B8 | G2 F2 G2 _A2 G3 F | E6 DC D4 | E4 F4 F4- | F2 D2 G4 A4 | B4 d4 c4 | %51
w: _ gli|mo- * * * * v'a|ri- * * *|so, Ch'io veg-|* gia che'l mio|duol, Ch'io veg-|
 f4 e4 c4 |[M:4/2][Q:1/4=120] d6 cB A8 | z4 B4 G2 F2 G2 _A2 | G3 F E6 DC D4 | E16 |] %56
w: gia che'l mio|duol _ _ _|gli mo- * * *|* v'a ri- * * *|so.|
V:2
 z16 |[K:Bb][K:treble] z4 B,8 C4- | C4 D4 E8 | D4 z2 B2 G4 E4 | _A8 G8 | z8 E4 D2 E2 | %6
w: |Guar- da-|* te a- man-|ti Guar- da- te a-|man- ti|io mi ri-|
 C2 D2 E4 D2 E2 F2 D2 | E4 G4 F4 E4 | z8 z4 F4 | G4 F4 E2 E2 _A4 | G2 B2 B3 _A G2 F2 E2 E2 | %11
w: vol- go a vo- i, io mi ri-|vol- go a vo- i,|Per-|che so ben ch'al- tru-|i, In- ten- de- re non puo, In-|
 E2 D2 E3 F G8 | G4 CD E3 D D2 E4 | z2 B2 B6 A2 G2 G2 | F2 F4 G4 F2 F4 | F8 B,6 B,2 | C4 C3 D E8 | %17
w: ten- de- re non puo|qual stat' _ _ e'l mi- o,|In- ten- de- re non|puo qual stat' e'l mi-|o A- mo|quan- to si puo|
 z4 G4 F2 E2 F2 G2 | E6 F2 G4 _A4 | G4 G2 F2 F2 F2 E4 | F4 G8 F4 | z16 | z8 z4 G4 | G3 F E4 D4 z4 | %24
w: ne per _ _ _|_ _ _ con-|for- to, De l'a- mo- ro-|so af- fan- no,||al-|tro de- si- o,|
 D6 C2 B,2 B,4 A,2 | B,4 B,4 C6 C2 | B,16 | B,4 B,4 C2 B,2 C2 D2 | E4 C4 F4 D4 | E8 C4 F4 | %30
w: Che ve- der glioc- chi|de la Don- na|mi-|a, Et el- * * *|* la perch' io|si- a, perch'|
 E4 G6 FE F4 | B,4 F4 E6 D2 | C4 B,4 E4 D4 | G6 F2 G2 A2 B4 | G16 | z4 z2 B,4 C2 D4 | E2 D2 G4 F8 | %37
w: io si- * * *|a, Tra gli in- fe-|li- ci a- mant' il|piu in- fe- li- * *|ce,|Quest' an- cor|mi dis- di- ce,|
 z4 D8 B,4 | C8 D8 | C4 z2 C2 F4 D4 | E6 F2 G2 F2 E2 D2 | F4 !fermata!F4 z4 D4 | C4 F4 E4 C4 | %43
w: mi dis-|di- *|ce, Et sol mi|mo- stra tan- to del bel|vi- so, Ch'io|veg- gia che'l mio|
 D4 B4 A6 B2 | c4 A4 B6 AG |[M:3/2] F2 C2 E2 D2 E2 F2 | E12 | B,4 B,8 | B,4 D4 C4 | F4 E4 C4 | %50
w: duol, Ch'io veg- gia|che'l mio duol _ _|_ gli mo- * * *||v'a ri-|so, Ch'io veg-|gia che'l mio|
 D4 B4 A4- | A2 B2 c4 A4 |[M:4/2] B6 AG F4 C4 | E2 D2 E2 F2 E8- | E4 B,4 B,8 | B,16 |] %56
w: duol, Ch'io veg-|* gia che'l mio|duol _ _ _ gli|mo- * * * *|* v'a ri-|so.|
V:3
 z16 |[K:Bb][K:treble-8] z16 | z16 | z4 B8 c4- | c4 d4 e8- | e4 d4 z8 | z4 B4 B2 c2 d2 B2 | %7
w: |||Guar- da-|* te a- man-|* ti|io mi ri- vol- go a|
 c4 B4 z2 _d2 c2 B2 | c2 d2 e6 dc d4 | e2 c4 d2 B4 c2 d2 | e4 d4 z2 B2 B3 _A | %11
w: vo- i, io mi ri-|vol- go a vo- * * *|i, Per- che so ben ch'al-|tru- i, In- ten- de-|
 G3 F E2 E2 E2 F2 G2 _A2 | B2 E2 _A2 G2 F4 E4 | z4 G4 G3 A B2 c2 | d2 d2 d2 B2 cB B4 A2 | B8 z8 | %16
w: re non puo, In- ten- de- re non|puo qual stat' e'l mi- o,|In- ten- de- re non|puo qual stat' e'l mi- * * *|o,|
 z8 E6 E2 | G4 G2 A2 B4 B4 | c2 B2 c2 d2 e4 c4 | B4 B4 z2 B2 B2 B2 | c2 d2 e4 d4 z2 f2 | %21
w: A- mo|quan- to si puo ne|per _ _ _ _ con-|for- to, De l'a- mo-|ro- so af- fan- no, De|
 f2 f2 e4 f4 g4 | g4 z4 e4 e3 d | c4 B4 z4 B4- | B2 A2 G4 F4 E4 | F4 G4 _A4 G2 A2- | %26
w: l'a- mo- ro- so af- fan-|no, al- tro de-|si- o, Che|_ ve- der glioc- chi|de la Don- na mi-|
 A2 G2 G2 FE F8 | E8 z8 | z8 z4 B4 | c2 B2 c2 d2 e4 d4 | B4 e4 c6 d2 | e4 d2 c2 B6 _A2 | %32
w: |a,|Et|el- * * * * la|perch' io si- *||
 G4 F4 z4 B4 | c6 d2 e4 d4 | c4 B4 e6 d2 | c4 B4 z8 | z2 B4 c2 d4 c2 d2 | c4 B4 z8 | z8 z4 G4 | %39
w: * a, Tra|gli in- fe- li- ci a-|mant' il piu in- fe-|li- ce,|Quest' an- cor mi dis-|di- ce,|Et|
 c4 A4 d4 B4 | G2 A2 B8 B4 | c8 B4 z2 B2 | A6 B2 c4 c4 | B4 B4 f4 d4 | e4 f4 B8 |[M:3/2] z4 z4 G4 | %46
w: sol mi mo- stra|tan- to del bel|vi- so, Ch'io|veg- gia che'l mio|duol, Ch'io veg- gia|che'l mio duol|gli|
 B2 A2 B2 c2 B4 | G4 F8 | E4 B4 A4- | A2 B2 c4 c4 | B4 B4 f4 | d4 e4 f4 | %52
w: mo- * * * *|v'a ri-|so, Ch'io veg-|* gia che'l mio|duol, Ch'io veg-|gia che'l mio|
[M:4/2] B6 c2 d2 c2 c2 BA | B4 G4 B2 A2 B2 c2 | B4 G4 F8 | E16 |] %56
w: duol _ _ _ _ _ _|_ gli mo- * * *|* v'a ri-|so.|
V:4
 z16 |[K:Bb][K:bass] z16 | z16 | G,8 E,4 C,4 | F,8 E,8 | z4 G,4 E,2 F,2 G,2 E,2 | F,4 E,4 z8 | %7
w: |||Guar- da- te a-|man- ti|io mi ri- vol- go a|vo- i,|
 z4 E,4 F,2 _D,2 E,2 _G,2 | F,4 E,4 z8 | z4 F,4 G,4 F,4 | E,2 E,2 B,4 E,8 | %11
w: io mi ri- vol- go a|vo- i,|Per- che so|ben ch'al- tru- i,|
 z2 B,2 B,3 _A, G,2 F,2 E,4- | E,2 G,2 F,2 E,2 B,,4 E,4 | z4 E,4 E,3 F, G,2 A,2 | %14
w: In- ten- de- re non puo|_ qual stat' e'l mi- o,|In- ten- de- re non|
 B,6 G,2 A,2 B,2 F,4 | B,,8 z4 E,4- | E,2 E,2 C,4 G,3 _A, B,4 | z16 | z8 z4 F,4 | %19
w: puo qual stat' e'l mi-|o, A-|* mo quan- to si puo||ne|
 G,2 F,2 G,2 A,2 B,4 G,4 | F,4 E,4 z2 B,2 B,2 B,2 | A,2 B,2 C4 B,4 G,4 | G,2 G,2 F,2 G,2 _A,4 G,4 | %23
w: per _ _ _ _ con-|for- to, De l'a- mo-|ro- so af- fan- no, De|l'a- mo- ro- so af- fan- no,|
 z4 G,4 G,3 F, E,4 | D,4 E,6 D,2 C,4 | B,,4 E,4 C,2 D,2 E,4- | E,4 E,4 B,,8 | E,16- | E,8 z4 G,4 | %29
w: al- tro de- si-|o, Che ve- der|glioc- chi de la Don-|* na mi-|a,|_ Et|
 E,2 D,2 C,2 B,,2 C,4 B,,4 | E,4 C,4 F,8 | E,4 F,4 G,6 F,2 | E,4 D,4 C,4 B,,4 | E,6 D,2 C,4 B,,4 | %34
w: el- * * * * la|perch' io si-|a, Tra gli in- fe-|li- ci a- mant' il|piu in- fe- li- ce,|
 z16 | z4 G,6 E,2 B,4 | G,4 E,4 D,2 E,2 F,2 D,2 | E,2 F,2 G,2 A,2 B,6 A,G, | A,8 G,8 | %39
w: |Quest' an- cor|mi dis- di- * * *||* ce,|
 z2 C,2 F,4 D,4 G,4- | G,2 F,2 E,2 D,2 E,2 F,2 G,4 | F,8 z4 B,,4 | F,4 D,4 E,4 F,4 | B,,8 z8 | %44
w: Et sol mi mo-|* stra tan- to del bel vi-|so, Ch'io|veg- gia che'l mio|duol|
 z16 |[M:3/2] F,4 G,2 F,2 E,2 D,2 | E,12 | E,4 B,,8 | E,4 B,,4 F,4 | D,4 E,4 F,4 | B,,8 z4 | z12 | %52
w: |gli mo- * * *||v'a ri-|so, Ch'io veg-|gia che'l mio|duol||
[M:4/2] z8 F,8 | G,2 F,2 E,2 D,2 E,8- | E,4 E,4 B,,8 | E,16 |] %56
w: gli|mo- * * * *|* v'a ri-|so.|

